X:61
M:3/4
L:1/4
Q:3/4=55
K:D
a2a | d/e/f/g/a/f/ | c/d/e/f/g/e/ | d/e/f/g/a/b/ |\
a2g | a/g/f/g/a/f/ | g/f/e/f/g/e/ | a/g/a/g/a/b/ |
a/g/f/g/a/f/ | g/a/b/a/g/f/ | g/f/e/d/c | d>cB |\
dAF | dAE | d/c/B/A/F | d/c/B/A/E |\
d/c/B/A/D | d/c/d/c/d/e/ | d/c/B/A/G/F/ | EBA | A2G |

